assets/svgs/call-to-action-money.svg

<svg width="80" height="80" viewBox="0 0 80 80" fill="none" xmlns="http://www.w3.org/2000/svg">
<mask id="path-1-inside-1_2216_32331" fill="white">
<path d="M40 0L68.2843 11.7157L80 40L68.2843 68.2843L40 80L11.7158 68.2843L0 40L11.7158 11.7157L40 0Z"/>
</mask>
<path d="M40 0L68.2843 11.7157L80 40L68.2843 68.2843L40 80L11.7158 68.2843L0 40L11.7158 11.7157L40 0Z" stroke="#0B6AB7" stroke-width="3" mask="url(#path-1-inside-1_2216_32331)"/>
<path d="M40.0001 6L64.0418 15.9584L74.0002 40.0001M40.0001 74.0002L15.9584 64.0418L6 40.0001" stroke="#00E0E0" stroke-width="2"/>
<path d="M56.2498 50.8587C45.4455 50.8587 34.6412 50.8587 23.8369 50.8587V29.2501H56.2498V50.8587Z" stroke="#0AA5FF" stroke-width="1.5" stroke-linecap="round" stroke-linejoin="round"/>
<path d="M29.3264 29.25C29.3264 29.25 29.2326 31.6528 27.6927 33.1927C26.1528 34.7326 23.75 34.8264 23.75 34.8264" stroke="#0AA5FF" stroke-width="1.5"/>
<path d="M29.3264 50.8588C29.3264 50.8588 29.2326 48.456 27.6927 46.9161C26.1528 45.3762 23.75 45.2824 23.75 45.2824" stroke="#0AA5FF" stroke-width="1.5"/>
<path d="M50.6736 29.2501C50.6736 29.2501 50.7674 31.6529 52.3073 33.1928C53.8472 34.7327 56.25 34.8265 56.25 34.8265" stroke="#0AA5FF" stroke-width="1.5"/>
<path d="M50.6736 50.8588C50.6736 50.8588 50.7674 48.456 52.3073 46.9161C53.8472 45.3762 56.25 45.2824 56.25 45.2824" stroke="#0AA5FF" stroke-width="1.5"/>
<circle cx="40" cy="40.0544" r="7.26608" stroke="#0AA5FF" stroke-width="1.5"/>
<path d="M39.5793 37.1074C39.8118 37.1074 40.0003 37.2959 40.0003 37.5284V37.9494H40.4212V37.5284C40.4212 37.2959 40.6097 37.1074 40.8422 37.1074C41.0747 37.1074 41.2632 37.2959 41.2632 37.5284V37.9494H41.7089C41.9414 37.9494 42.1299 38.1379 42.1299 38.3704C42.1299 38.6029 41.9414 38.7913 41.7089 38.7913H38.7126V39.6333H41.7089C41.9414 39.6333 42.1299 39.8218 42.1299 40.0543V41.7382C42.1299 41.9707 41.9414 42.1592 41.7089 42.1592H41.2632V42.5801C41.2632 42.8126 41.0747 43.0011 40.8422 43.0011C40.6097 43.0011 40.4212 42.8126 40.4212 42.5801V42.1592H40.0003V42.5801C40.0003 42.8126 39.8118 43.0011 39.5793 43.0011C39.3468 43.0011 39.1583 42.8126 39.1583 42.5801V42.1592H38.2916C38.0591 42.1592 37.8706 41.9707 37.8706 41.7382C37.8706 41.5057 38.0591 41.3172 38.2916 41.3172H41.288V40.4753H38.2916C38.0591 40.4753 37.8706 40.2868 37.8706 40.0543V38.3704C37.8706 38.1379 38.0591 37.9494 38.2916 37.9494H39.1583V37.5284C39.1583 37.2959 39.3468 37.1074 39.5793 37.1074Z" fill="#0AA5FF"/>
</svg>

<svg viewBox="0 0 80 80" fill="none" xmlns="http://www.w3.org/2000/svg">
  <mask id="a" fill="#fff">
    <path d="m40 0 28.284 11.716L80 40 68.284 68.284 40 80 11.716 68.284 0 40l11.716-28.284L40 0Z"/>
  </mask>
  <path d="m40 0 28.284 11.716L80 40 68.284 68.284 40 80 11.716 68.284 0 40l11.716-28.284L40 0Z" stroke="#0B6AB7" stroke-width="3" mask="url(#a)"/>
  <path d="m40 6 24.042 9.958L74 40M40 74l-24.042-9.958L6 40" stroke="#00E0E0" stroke-width="2"/>
  <path d="M56.25 50.859H23.837V29.25H56.25v21.61Z" stroke="#0AA5FF" stroke-width="1.5" stroke-linecap="round" stroke-linejoin="round"/>
  <path d="M29.326 29.25s-.093 2.403-1.633 3.943-3.943 1.633-3.943 1.633m5.576 16.033s-.093-2.403-1.633-3.943-3.943-1.634-3.943-1.634M50.674 29.25s.093 2.403 1.633 3.943 3.943 1.634 3.943 1.634m-5.576 16.032s.093-2.403 1.633-3.943 3.943-1.634 3.943-1.634" stroke="#0AA5FF" stroke-width="1.5"/>
  <circle cx="40" cy="40.054" r="7.266" stroke="#0AA5FF" stroke-width="1.5"/>
  <path d="M39.58 37.107a.42.42 0 0 1 .42.421v.421h.421v-.42a.421.421 0 0 1 .842 0v.42h.446a.421.421 0 0 1 0 .842h-2.996v.842h2.996a.42.42 0 0 1 .42.421v1.684a.421.421 0 0 1-.42.421h-.446v.421a.421.421 0 0 1-.842 0v-.42h-.42v.42a.421.421 0 0 1-.843 0v-.42h-.866a.421.421 0 0 1 0-.843h2.996v-.842h-2.996a.421.421 0 0 1-.421-.42V38.37a.42.42 0 0 1 .42-.42h.867v-.422a.42.42 0 0 1 .421-.42Z" fill="#0AA5FF"/>
</svg>
